X:042
T:Dingles Regatta
M:6/8
L:1/8
K:G
d^cd e2d | BAB d2B | A2A AGA | B2A G2B |
d^cd e2d | BAB d2B | A2A AGA | B2A G3 :||
d2d def | g2g gfg | a2a aga | b2a gfe |
d2d def | g2g gfg | a2g f2e | def g3 :||
gbg dgd | BdB G2G | AGA DEF | G2B def |
gbg dgd | BdB G2G | AGA DEF | G3 G3 :|
